icons/grid-17.svg

<svg width="16" height="17" viewBox="0 0 16 17" fill="none" xmlns="http://www.w3.org/2000/svg">
<path fill-rule="evenodd" clip-rule="evenodd" d="M2.6 2.16638C2.26863 2.16638 2 2.43501 2 2.76638V6.96638C2 7.29775 2.26863 7.56638 2.6 7.56638H6.8C7.13137 7.56638 7.4 7.29775 7.4 6.96638V2.76638C7.4 2.43501 7.13137 2.16638 6.8 2.16638H2.6ZM3.2 6.36638V3.36638H6.2V6.36638H3.2Z" fill="#272431"/>
<path fill-rule="evenodd" clip-rule="evenodd" d="M9.2001 2.16638C8.86873 2.16638 8.6001 2.43501 8.6001 2.76638V6.96638C8.6001 7.29775 8.86873 7.56638 9.2001 7.56638H13.4001C13.7315 7.56638 14.0001 7.29775 14.0001 6.96638V2.76638C14.0001 2.43501 13.7315 2.16638 13.4001 2.16638H9.2001ZM9.8001 6.36638V3.36638H12.8001V6.36638H9.8001Z" fill="#272431"/>
<path fill-rule="evenodd" clip-rule="evenodd" d="M8.6001 9.36636C8.6001 9.03499 8.86873 8.76636 9.2001 8.76636H13.4001C13.7315 8.76636 14.0001 9.03499 14.0001 9.36636V13.5664C14.0001 13.8977 13.7315 14.1664 13.4001 14.1664H9.2001C8.86873 14.1664 8.6001 13.8977 8.6001 13.5664V9.36636ZM9.8001 9.96636V12.9664H12.8001V9.96636H9.8001Z" fill="#272431"/>
<path fill-rule="evenodd" clip-rule="evenodd" d="M2.6 8.76636C2.26863 8.76636 2 9.03499 2 9.36636V13.5664C2 13.8977 2.26863 14.1664 2.6 14.1664H6.8C7.13137 14.1664 7.4 13.8977 7.4 13.5664V9.36636C7.4 9.03499 7.13137 8.76636 6.8 8.76636H2.6ZM3.2 12.9664V9.96636H6.2V12.9664H3.2Z" fill="#272431"/>
</svg>

<svg xmlns="http://www.w3.org/2000/svg" width="16" height="17" viewBox="0 0 16 17"><path fill-rule="evenodd" d="M2.6 2.166a.6.6 0 00-.6.6v4.2a.6.6 0 00.6.6h4.2a.6.6 0 00.6-.6v-4.2a.6.6 0 00-.6-.6H2.6zm.6 4.2v-3h3v3h-3zm6-4.2a.6.6 0 00-.6.6v4.2a.6.6 0 00.6.6h4.2a.6.6 0 00.6-.6v-4.2a.6.6 0 00-.6-.6H9.2zm.6 4.2v-3h3v3h-3zm-1.2 3a.6.6 0 01.6-.6h4.2a.6.6 0 01.6.6v4.2a.6.6 0 01-.6.6H9.2a.6.6 0 01-.6-.6v-4.2zm1.2.6v3h3v-3h-3zm-7.2-1.2a.6.6 0 00-.6.6v4.2a.6.6 0 00.6.6h4.2a.6.6 0 00.6-.6v-4.2a.6.6 0 00-.6-.6H2.6zm.6 4.2v-3h3v3h-3z"/></svg>
